packages/astro-components-stencil/src/icons/feedback.svg

<svg xmlns="http://www.w3.org/2000/svg" viewBox="0 0 24 24"><g xmlns="http://www.w3.org/2000/svg" id="feedback" fill-rule="nonzero">
            <path d="M20 2H4.01c-1.1 0-2 .9-2 2v18L6 18h14c1.1 0 2-.9 2-2V4c0-1.1-.9-2-2-2zm-7 12h-2v-2h2v2zm0-5c0 .55-.45 1-1 1s-1-.45-1-1V7c0-.55.45-1 1-1s1 .45 1 1v2z"/>
        </g></svg>

<svg width="24" height="24" viewBox="0 0 24 24" fill="none" xmlns="http://www.w3.org/2000/svg">
<path fill-rule="evenodd" clip-rule="evenodd" d="M20 2H4.01001C2.91001 2 2.01001 2.9 2.01001 4V22L6.00001 18H20C21.1 18 22 17.1 22 16V4C22 2.9 21.1 2 20 2ZM13 12V14H11V12H13ZM12 10C12.55 10 13 9.55 13 9V7C13 6.45 12.55 6 12 6C11.45 6 11 6.45 11 7V9C11 9.55 11.45 10 12 10Z" fill="black"/>
</svg>
